X: 20081
T: BE GONE DULL CARE
C:
%R: jig, waltz
B: Elias Howe "The Musician's Companion" 1843 p.8 #1
S: http://imslp.org/wiki/The_Musician's_Companion_(Howe,_Elias)
Z: 2015 John Chambers <jc:trillian.mit.edu>
N: The beaming is odd in bar 11.
N: The rthyms don't match at the strains' boundaries; not fixed.
M: 6/8
L: 1/8
K: D
% - - - - - - - - - - - - - - - - - - - - - - - - -
A |\
d3 e3 | f3 z2g | aba gfg | f3 z2A |\
d3 e3 | f3 z2g | fgf ede | d3 z2 :|
|: fg |\
a2a a2f | g2g g2e | f2 ffe d | {d}f2z zAA |\
d3 e3 | f3 z2g | fgf ede d3 z2 :|
% - - - - - - - - - - - - - - - - - - - - - - - - -

%%sep 1 1 500

